X:5956
T:Gan Ainm
R:reel
S:
H:
N:
D:Milltown 1999 
Z:Adrian Scahill
M:4/4
L:1/8
K:G
eAAB cBAG|EGG2 AG+Ee++dG+|eAAB cBAB|cdeg aged|\
eAAB cBAG|EGG2 AGEG|cdeg aged|1 cABG A2Bd:|2 cABG A3B||\
c3d egg2|egaf g2fg|eAA2 cdeg|abge d2ed|\
cBcd egg2|egaf gedB|c2BA GEDE|GABG A3B:||\


